!!!OTL: Jiemei tiaocai
!!!ARE: Asia, China, Shanxi, Qitai
!! I, 320
!!!SCT: C1439
!!!YEM: Copyright 1995, estate of Helmut Schaffrath.
**kern
*ICvox
*Ivox
*M2/4
*k[]
*C:
{8b
16dd
16ee
8b
16a
16g
=1
8b
8cc
4g}
=2
{8.dd
16dd
8cc
16cc
16dd
=3
8.cc
16b
8b
8a
=4
8g}
{8cc
8cc
8cc
=5
8cc
8e
8.g
16a
=6
8g
16g
16e
8d
8c
=7
2G}
=8
{8dd
8dd
8cc#
16cc#
16a
=9
8.g
16a
8g
8d}
=10
{8g
16g
16d
8g
16g
16d
=11
8g
16g
16a
8g
8d}
=12
{8f
16f
16d
8f
16f
16d
=13
8.g
16a
4g}
=14
{8.dd
16dd
8cc
16b
16a
=15
16g
16a
16g
16d
4g}
=16
{8b
8dd
8f#
16a
16g
=17
8cc
16g
16a
8g
8f
=18
8e
16d
16c
4G}
=19
{8.dd
16dd
8cc
16b
16a
=20
16g
16a
16g
16d
4g}
=21
{8b
8dd
8cc
16b
16a
=22
8cc
16g
16a
8g
8f
=23
8e
16d
16c
4G}
==
!!!AGN: Wuge, Yangge, Jinzhong yangge
!!!ONB: ESAC (Essen Associative Code) Database: HUANG
!!!AMT: simple duple
!!!AIN: vox
!!!EED: Helmut Schaffrath
!!!EEV: 1.0
*-
